X:1
T:Trio Sonata No.2 in d-moll from " 12 Trio Sonatas Op.2 "
T:Trio Sonata No.2 in d-moll
T:from " 12 Trio Sonatas Op.2 " Transcribed for Recorder, Traverso and B/C in g-moll from IMSLP#416313 PDF File
T:Arcangelo Corelli (1653 — 1713) Arr. by : Alfred Moffat (1866-1950)
T:Public Domain - Non-PD EU
T:Public Domain - Non-PD EU
T:Public Domain - Non-PD EU
T:Public Domain - Non-PD EU
T:Public Domain - Non-PD EU
T:Public Domain - Non-PD EU
C:Arcangelo Corelli (1653 — 1713)
Z:Public Domain - Non-PD EU
%%score [ 1 2 3 ] { ( 4 6 7 ) | ( 5 8 ) }
L:1/8
Q:1/4=60
M:4/4
K:Bb
V:1 treble nm="Alto Recorder" snm="A. Rec."
V:2 treble nm="Traverso" snm="Trv."
V:3 bass nm="Viola da gamba" snm="Vla. d. g."
V:4 treble nm="Harpsichord" snm="Hch."
V:6 treble 
V:7 treble 
V:5 bass 
V:8 bass 
V:1
"^Adagio""^1. Adagio" z/ d/ | (d>g)(g>a) ^f d2 d'/e'/ | (^fg/a/) (Ta>g) g2 z!p! b/c'/ | %3
 d' d'2 (c'/b/) a a2 b/a/ |!<(! (g>b)!<)! (e'/d'/)(c'/b/)!>(! a!>)! a2 a/a/ | %5
 dg(f>f) (f =e2) e/e/ | ff(e>e) (e d2) d'/d'/ | (d'c')(c'>c') (c'b) z b | ^c a2 g2 (f2!p! f) | %9
 (fe)(e>e) (e d2) d' | (b/a/)(g/f/) (T=e>d) d3!f! d' | (b/a/)(g/f/) T=e>d d3 :: z/!mf! a/ | %13
 a3 d'"_cresc." b3 e' | c'3 f' d'3 (d'/c'/) | gga>a b3!f! d' | (g/a/)b b>a b3!p! (d'/e'/) | %17
 f' f'2 (e'/d'/) e' g'2 f'/e'/ | d'e'Td'>c' c'3!p! (c'/d'/) | e' e'2 (d'/c'/) d' d'2 (e'/d'/) | %20
 c' c'2"_cresc." d'/c'/ b b2 (c'/b/) | _aa(g^f) g g2 d' | (e'/d'/)(c'/b/) (Ta>g)!f! g2 e2 | %23
 ^FG(TG>F) !fermata!G3 :| z/8 |[M:3/4][Q:1/4=120]"^2. Corrente" z!f! d | d3 d g2 | b2 a3 c' | %28
 b4 g2 | g2 f3 e | (d3 e)"_dim." f2- | f2 (e3 e) | (e3 f) (d2- | de)!<(! (c3 d)!<)! | d6 | %35
!f! d'2 (d'3 d') | e'6 | c'2 (c'3 c') | d'6 | d'2 (c'3 d') | b6 | b2 (a3 g) | f3 g a2 | d2 g3 g | %44
 (g3 a) !tenuto!g!tenuto!a | (fg) (T=e3 d) | d6- | d4 :: z!p! a | (a3 d) ^f2 | a2 (d'3 c') | b6 | %52
 g2 (c'3 b) | a6 | f2 (b3 a) | (g3 a) (b2- | bc') c'3 b |!>(! b6!>)! |!p! f'2 e'3 d' | e'3 e' =b2 | %60
 (c'd') (Td'3 c') | c'6 | e'2"_cresc." ^d'3 c' | b3 c' d'2 | (bd') c'3 b | a6 |!f! g2 a3 a | %67
 b4"_cresc." =b2 | c'2 d'3 d' | e'3 e' ^f2 | (ga) (Ta3 g) | g4!ff! d'2 | c'2 d'3 d' | e'3 e' ^f2 | %74
 (ga) (Ta3 g) | g6- | g4 :| z/8 |[M:12/8][Q:3/8=120]"^Allegro""^3. Giga." z z!p! d (BA).G (d2 g) | %79
 ^f3 (d'2 g) (c'd').b a3 | g3- g2 .g' (f'e').d' .e'2 .f' | d'3 z2 .b (a2 f) (a2 =b) | %82
 c'3 z2 .c' (b2 g) (b2 c') | d'3 d3 (ga).b (a2 g) | ^f3 z2 .d' .e'2 .e' .e'2 .e' | %85
 (e'2 d') z2 .g .c'2 .c' .c'2 .c' | (c'2 b) z (ba) (gaf =efd) | .^c2 (a d2)!f! b (ag)f (T=e2 d) | %88
 d3 :: z!p! .d.e (fe).d (gf).e | (f"_cresc."e).d (gf).e (fe).d (gf).e | %91
!f! f2 b (d'e'f') (e'2 d') (c'2 b) | (a2 f) b3-!p! b3 c'3- | c'3 d'3!f! (e'f').d' (c'2 b) | %94
 b3- b2!p! .=b (c'd').e' Td'3 | c'3 d'2 ^f (ga).b (a2 g) | ^f3 z2"_cresc." d' =e'3 z2 ^f' | %97
 g'3 z2!f! .g (c'd')b a3 | g2 d e2 ^F (GA)B TA3 | !fermata!g3 :| %100
V:2
 z/ B/ | (B>c) c2 d2 z g/g/ | (ad) (^f>g) g2 z!p! g/a/ | bbg>g ccf>f | %4
!<(! (B>g)!<)! (c'/b/)(a/g/)!>(! ^f!>)! f2 f/f/ | g=b(c'd') (g g2) g/g/ | fa(bc') f f2 ^f/f/ | %7
 (gg)(a>a) (ad) z g | =e^cde A A2!p! a | (bb)(c'>c') f f2 a | (^c>d) (dc) d2!f! a2 | ^c>d d>c d3 :: %12
 z/!mf! f/ | ^f3 a"_cresc." d3 b | a3 c' f3 (b/f/) | c2 d2 e2 B2 |!f! c'd'c'>b b3!p! b/b/ | %17
 c'c'd'>d' g e'2 (d'/c'/) | =bc'(c'b) c'3!p! g/a/ | bb(c'>c') f2 ^f2 | %20
 gg"_cresc."(a>a) d d2 (e'/d'/) | c'c'c'c' (c' b2) (_a/g/) | (^f>g) (gf)!f! g2 Gc- | %23
 cB(A>G) !fermata!G3 :| z/8 |[M:3/4] z!f! B | B3 B B2 | d2 ^f3 f | g6 | b2 c'4 | (f4"_dim." c'2) | %31
 b2 b4 | a4 b2- | b2!<(! (g3 a)!<)! | ^f6 |!f! g2 (=b3 b) | c'6 | f2 (a3 a) | b6 | a2 (a3 a) | d6 | %41
 =e2 (^c3 c) | (d4 =e2) | f2 =e3 d | (^c3 A) !tenuto!=B!tenuto!c | d2 d3 ^c | d6- | d4 :: z!p! ^f | %49
 (^f3 f) d2 | ^f2 (f3 f) | g6 | c'2 g4 | c6 | b2 f4 | B3 (fed) | (cB) A3 f |!>(! d6!>)! | %58
!p! d'2 d'3 d' | g3 _a f2 | (ec') (c'3 =b) | c'6 | a2"_cresc." a3 a | d4 a2 | (gb) a3 g | ^f6 | %66
!f! d2 d4 | d4"_cresc." d'2 | g2 f3 ^g | e4 d2 | g2 ^f3 g | g4!ff! =b2 | g2 f3 ^g | e4 d2 | %74
 g2 ^f3 g | g6- | g4 :| z/8 |[M:12/8] z z!p! G (GA).B (A2 G) | d3 z2 .d' (^f2 g) (g2 f) | %80
 g3- g2 b c'3 z2 .c' | f3 z2 .d' (c'2 a) (c'2 d') | e'3 z2 .e' (d'2 b) (d'2 e') | %83
 a3- a2 d' (d'c').b (c'2 d') | d'3 z2 .a .b2 .b (c'b).c' | f3 z2 .b .a2 .^f .g2 .a | %86
 d3 z2 .^c (d2 a) (g2 f) | =e3 z2!f! d (^cA)d (d2 c) | d3 :: z!p! .B.c (dc).B (ed).c | %90
 (d"_cresc."c).B (ed).c (dc).B (ed).c |!f! d2 f (bc'd') (g2 f) (e2 d) | c3 z2!p! f (gfe) z2 g | %93
 (agf) z2 .b!f! (ga).b (b2 a) | b3- b2!p! .d' (g2 c') (c'2 =b) | c'3 z2 .d' c'3 z2 b | %96
 a3 z2"_cresc." d' (d'2 c') z2 c' | (c'2 b) z2!f! .d (=e^f)g g2 f | g3 z2 d c2 G G2 ^F | %99
 !fermata!g3 :| %100
V:3
 z/ G,/ | G,2 E,2 D,2 B,2 | (CB,/C/) DD, G,2!p! G2- | G>F =E2 F>_E D2 | %4
!<(! EE/D/!<)! CC!>(! D!>)! D,2 D/C/ | =B,G,(A,B,) C C,2 C/_B,/ | A,F,(G,A,) B, B,,2 D, | %7
 =E,2 ^F,2 G,2 z G, | A,A,=B,^C DD,F,!p!D, | G,2 A,2 B,2 F,2 | G,D,A,A,, D,2!f! F,2 | %11
 G,D,A,A, D,3 :: z/!mf! D/ | DD,^F,D,"_cresc." G,A,B,G, | A,F,G,A, B,CDD, | z4 E2 FA | %16
!f! E,2 F,2 B,,2!p! B,2 | A,2 =B,2 C2 E,2 | F,2 G,2 CDEC |!p! G,2 A,2 B,CDD, | %20
 =E,2"_cresc." ^F,2 G,A,B,B,, | C,2 D,2 E,2 B,,2 | C,2 D,2!f! G,2 C2 | DG, D,2 !fermata!G,3 :| %24
 z/8 |[M:3/4] z!f! G, | G,6 | G,2 D,4 | G,6 | G,2 A,4 | B,4"_dim." A,2 | G,2 C4 | F,4 B,2 | %33
 B,2!<(! E4!<)! | D3 E DC |!f! =B,2 G,4 | C3 D CB, | A,2 F,4 | B,3 B, A,G, | ^F,2 D,4 | G,3 F =ED | %41
 ^C2 A,4 | D,4 C2 | B,2 G,4 | A,3 F, G,2 | D,2 A,4 | D,6- | D,4 :: z!p! E, | D,6 | D2 ^F2 D2 | %51
 G3 AGF | =E2 C2 E2 | F3 (GFE) | D2 B,2 D2 | E3 (DCB,) | (EC) F2 F,2 |!>(! B,6!>)! |!p! B,2 =B,4 | %59
 C4 G,2 | _A,F, G,4 | C3 B,A,G, | ^F,2"_cresc." D,4 | G,4 F,2 | E,2 C,4 | D,4!f! DC | B,2 ^F,4 | %67
 G,4"_cresc." G2 | E2 =B,4 | C4 D2 | EC D2 D,2 | G,4!ff! F2 | E2 =B,4 | C4 D2 | EC D2 D,2 | G,6- | %76
 G,4 :| z/8 |[M:12/8] z3!p! G,3 (F,2 E,) | D,3 z2 .B, (A,2 G,) (D2 D,) | %80
 (G,2 A,) (B,2 G,) A,3 z2 .F, | (B,2 C) (D2 B,) F3 z2 .F | (E2 C) (E2 ^F) G3 z2 G | %83
 .F2 .E .F2 .D E3 z2 .E | D3 z2 .D .G,2 .G, (A,G,).A, | (B,2 C) (D2 B,) .^F,2 .D, .=E,2 .F, | %86
 G,3 z2 .A, B,3 z2 .G, | A,3 B,2!f! G, A,2 D, A,3 | D,3 :: z3!p! B,3 z2 z | %90
"_cresc." B,3 z2 z B,3 z2 z |!f! B,3 z2 z E,3 z2 z | F,3 D,3!p! E,3 E,3 | %93
 F,3 z2 .D!f! (C2 B,) (F2 F,) | B,3 z2!p! .G E2 C G2 G, | C3 z2 .D E3 z2 C | %96
 D3 B,3"_cresc." C3 D3 | E3 B,3!f! A,2 G, D2 D, | G,3 z2 D, E,D,C, D,3 | !fermata!G,3 :| %100
V:4
 z/ [DBd]/ | [DBd]>[Gcg] [Gcg]2 [Ad^f]2 [Gdg]2 | [Ad^f][Gdg] [^Fcd]2 [GBd]2 [Bdg]2 | %3
 (dg) g2 (cf) f2 | (Be) (eA) (A^f/=e/) d[df] | (g3 f) (f =e2) z | (f3 _e) (e d2) ^F | %7
 z c2 c ([Ac][GB]) z [GBd] | ^ccd=e f2 df | z _e2 e ([ce][Bd]) [Ada]2 | %10
 ([Bg]/[Af]/[G^c=e]/[Fd]/) e>d [FAd]2 [Ada]2 | ([Bg]/[Af]/=e/[Fd]/) e .d [FAd]3 :: z | d4 BddB | %14
 [=F=f]3 [Ff] d2 e2 | cgf_e dc/B/ [FBf]2 | c B2 A [DFB]2 [FBd]2 | [Fcf]2 [FGd]2 e2 g2 | %18
 =B c2 B c4 | BeFf [Bd]2 d2 | [Gc-]2 cd dc B2 | _Ac- c2 [CGc]2 [DGd]2 | e2 [Ad]2 [GBd]2 [ce]2 | %23
 [Gd]2 [Ad]2 !fermata![GBdg]3 :| z/8 |[M:3/4] z2 | z2 ([GB][Ac] [Bd]2) | [DGB]2 [D^FA]4 | %28
 [DGB]2 ([GB][Ac] [Bd]2) | [Bg]2 (f3 e) | [Bd]4 [cf]2 | [Bf]2 e4 | (e2 dc) (d2 | %33
 [Bd]2)!<(! [Gc]4!<)! | [^Fd]6 | [Gg]2 [Gg]4 | [Gce]6 | (cd)cB A2 | [FBd]6 | [Dd]2 [Dd]4 | [DGB]6 | %41
 [GB=e]2 [G^ce]4 | [FAd]4 [=EA=e]2 | [FBd]2 (=e3 d) | [=EA^c]3 [DAd] ([G=B][Ac]) | %45
 [FAd]2 (d2 ^c) x | d6 | [FAd]4 :: z2 | z2 ([^fa][eg] [df]2) | [Ad^f]2 d4 | (d2 g4) | (g2 =e2 c2) | %53
 (c2 f4) | (f2 d2 B2) | (B3 fed) | (c4 f2) |!>(! [Bd-]2 [df][ce]!>)! [Bd]2 | z2 (d2 f2) | %59
 ([Gce]4 [F=Bd]2) | [E_Ac]2 (c2 =B2) | [EGc]2 [Gce]4 | (a2 ^f2 _e2) | ([Bd][Ac] [GB]2) [Ad]2 | %64
 [Gg]6 | [A^f]6 | [Gdg]2 [Ada]4 | [Bdb]4 .[=Bg=b]2 | [cgc']2 [ddgd']4 | [ege']4 dc | %70
 [GBg][cea] [Acd^f]4 | [Bdg]4 [=Bg=b]2 | [cgc']2 [dgd']4 | [ege']4 ((dc)) | [GBg][cea] [Acd^f]4 | %75
 g6- | .g4 :| z/8 |[M:12/8] z3 ([GB][Ac][Bd]) [Ad]2 [Gcg] | %79
 (([d^f][=eg])[fa]) [^Fd]2 [Gd] (dcB) (A2 d) | (BAG d2 g) f3- f2 e | %81
 (dcB [Bf]2 [db]) ([fa][gb][ac'] [fa]2 [=Bg]) | (gfe g2 a) ([gb][ac'][bd'] [gb]2) z | %83
 (a3 d'2) d (gab) (a2 g) | (^f=ed) (a2 d) [B_e]2 z [ce]2 z | (f2 F) F2 z a2- ^f g2 a | %86
 d3 z2 [A^c] [Gd]2 z z2 [db] | (a2 g f2) [Bdg] (^c2 d) (d2 c) | [FAd]3 :: z2 z (Bcd) e3 | %90
 [Bd][ce][df] (g2 a) [db][ec'][fd'] [ge']2 [af'] | ([bf']2 [fd'] [db]3) ([eg]2 [df] [ce]2 [Bd]) | %92
 (c3!>(! [Ff]3)!>)! c2 c c3 | (cBA f2) [FB] (e2 d c2 f) | (dcB f2 [=Bd]) (gfe d2 g) | %95
 (edc) [Gdg]2 [Ad^f] [Gcg]2 z2 [Bg] z | (^f=ed) [Gdg]3 [Ge]3 z3 | %97
 [Gg]3 z2 [dgd'] [=ec'][^fd'][gb] [da]3 | g3- g2 [^Fd] (c2 [eg]) (g2 ^f) | !fermata![GBdg]3 :| %100
V:5
 z/ [G,,G,]/ | [G,,G,]>[E,,E,] [E,,E,]2 [D,,D,]2 [B,,B,]2 | [C,C][B,,B,]/[C,C]/ [D,D]2 G,2 G2- | %3
 G>F =E2 F>_E D2 | E>D C2 D2 D,(D/C/) | =B,G,A,B, C2 C,C/_B,/ | A,F,G,A, B,2 D,2 | %7
 =E,2 ^F,2 G,2 z2 | z (A,=B,)^C DD,F,D, | G,2 A,2 B,2 F,2 | G, D, A,A,, D,2 [F,,F,]2 | %11
 [G,,G,][D,,D,][A,,A,][A,,,A,,] [D,,D,]3 :: z | DD,^F,D, G,A,B,G, | A,F,G,A, B,CDD, | %15
 E,2 [F,,F,]2 [G,,G,]2 [D,,D,]2 | [E,,E,]2 [F,,F,]2 [B,,B,]2 B,2 | A,2 =B,2 C2 E,2 | %18
 F,2 G,2 C,D,E,C, | [G,,G,]2 [A,,A,]2 [B,,B,]CDD, | =E,2 ^F,2 [G,,G,][A,,A,][B,,B,][B,,,B,,] | %21
 [C,,C,]2 [D,,D,]2 [E,,E,]2 B,,2 | C,2 D,2 [G,,G,]2 [C,C]2 | [D,D]G, D,2 !fermata![G,,G,]3 :| z/8 | %25
[M:3/4] z2 | [G,,-G,]6 | [G,,G,]2 [D,,D,]4 | [G,,G,]6 | [G,D]2 [A,F]4 | (FBAG) F2 | [G,F]2 [CG]4 | %32
 [F,F]4 ([B,F]2 | [B,F]2) [E,E]4 | [D,D]3 [E,E][D,D][C,C] | [=B,,=B,]2 [G,,G,]4 | %36
 C,3 [D,D][C,C][_B,,_B,] | [A,,A,]2 [F,,F,]4 | [B,,B,]3 [B,,B,][A,,A,][G,,G,] | %39
 [^F,,^F,]2 [D,,D,]4 | [G,,G,]3 =F,=E,D, | [^C,^C]2 [A,,A,]4 | [D,D]4 [=C,=C]2 | %43
 [B,,B,]2 [G,,G,]4 | [A,,A,]3 [F,,F,] [G,,G,]2 | [D,,D,]2 [A,,A,]4 | [D,D]6 | [D,,D,]4 :: z2 | %49
 D,6 | D2 ^F2 D2 | G3 AGF | =E2 C2 E2 | F3 GF_E | D2 B,2 D2 | E3 DCB, | EC F2 F,2 | (B,6 | %58
 [B,,B,]2) [=B,,=B,]4 | [C,C]4 [G,,G,]2 | [_A,,_A,][F,,F,] [G,,G,]4 | %61
 [C,C]3 [B,,B,][=A,,=A,][G,,G,] | [^F,,^F,]2 [D,,D,]4 | [G,,G,]4 [=F,,=F,]2 | [E,,E,]2 [C,,C,]4 | %65
 [D,,D,]4 [D,D][C,C] | [B,,B,]2 [^F,,^F,]4 | [G,,G,]4 [G,G][F,F] | E2 x4 | [C,C]4 [D,D]2 | %70
 [E,E][C,C] [D,D]2 [D,,D,]2 | [G,,G,]4 [F,,F,]2 | [E,,E,]2 [=B,,,=B,,]4 | [C,,C,]4 [D,,D,]2 | %74
 [E,,E,][C,,C,] [D,,D,]4 | [G,,G,]6 | G,,4 :| z/8 |[M:12/8] [D,,D,]2 [D,,D,] [G,,G,]3 F,2 E, | %79
 D,3 (DCB,) A,2 G, D2 D, | G,2 A, B,2 G, A,2 F,3 z | B,2 C D2 B, F2 F, F2 F | %82
 E2 C E2 ^F G2 G, G2 G | F2 E F2 D E3- E2 E | D2 =E ^F2 D, G,2 z A,2 z | %85
 B,2 C D2 z ^F,2 D, =E,2 F, | (G,2 A, B,2) z B,2 z z2 G, | A,3 B,2 G, A,2 D, A,2 A,, | D,3 :: %89
 z2 z (DEF) G2 A | [B,B]6 [B,B]6 | [B,B]6 E,6 | F,2 E, D,3 E,3 =E,2 E, | F,3 z2 D C2 B, F2 F, | %94
 B,3 z2 G E2 C G2 G, | C3 B,2 D E3 C3 | D2 C B,3 .[C,C]3 [D,D]3 | %97
 [_E,_E]3 [B,,B,]3 [A,,A,]2 [G,,G,] [D,D]2 [D,,D,] | [G,,G,]2 z z2 [D,D] [_E,_E][D,D][C,C] [D,D]3 | %99
 .!fermata![G,,G,]3 :| %100
V:6
 x | x8 | x8 | B2 [Gc]2 A2 F2 | G2 G2 ^F3 A | d=Bcd [Gc]3 x | cABc [FB]3 x | G2 [DA]2 D2 x2 | %8
 A4 A4 | B2 c2 F2 x2 | ^c2 dc x4 | ^c2 G2 x3 :: x | ^F2 AF G4 | cABc [FB]4 | G2 A2 B2 x2 | %16
 G2 [CF]2 x4 | x6 [Gc]2 | DE [DG]2 EFGE | x6 A^F | x2 A2 BA G=F | _E2 D2 x4 | c/B/A/G/ G^F x4 | %23
 cB G>^F x3 :| x/4 |[M:3/4] x2 | D6 | x6 | x6 | x2 c4 | x6 | x2 (B2 cB) | A4 B2 | x6 | x6 | %35
 dedc =B2 | x6 | x2 [Ff]4 | x6 | ABAG ^F2 | x6 | x6 | x6 | x2 [GB]4 | x6 | x2 [=EA]4 | %46
 [FA]2 ([GB][FA] E2) | x4 :: x2 | A6 | x2 A2 ^F2 | d2 x4 | [Gc]6 | x6 | [FB]6 | B3 x AB | B2 A4 | %57
 x6 | G6 | x6 | x2 G4 | x6 | [Ac]4 x2 | x6 | (dcedcB) | x6 | x6 | x6 | x6 | x6 | x6 | x6 | x6 | %73
 x6 | x6 | ([Bd]2 [ce][Bd] [Ac]2) | [Bd]4 :| x/4 |[M:12/8] x9 | A3 x3 ^F2 G G2 F | G3 G2 B c3 A3 | %81
 B2 x10 | c3 c3 x6 | d3- d3 dcB c2 x | d3 d3 x6 | x6 c2 c c2 c | (c2 B) x9 | %87
 ^c3 d2 x (AGF) [=EA]2 x | x3 :: x3 B3 B2 c | x3 e3 x6 | x7 G2- G3 | A3 B2 B [GB]3 [GB]3 | %93
 A x5 GAB B2 A | B2 x4 c3 c2 =B | c3 x9 | A2 x4 (d2 c) x2 [Ac^f] | (c2 B) x6 (g2 ^f) | %98
 ([Bd][Ac][GB]) [GB]2 x G2 c [Ad]2 x | x3 :| %100
V:7
 x | x8 | x8 | x8 | x8 | G3 G x4 | F3 F x4 | x8 | x8 | x8 | x2 G2 x4 | x7 :: x | x8 | x8 | x8 | %16
 x8 | x8 | x8 | x8 | x8 | z2 G^F z4 | x8 | x7 :| x/4 |[M:3/4] x2 | x6 | x6 | x6 | x6 | x6 | x6 | %32
 x6 | x6 | x6 | x6 | x6 | x6 | x6 | x6 | x6 | x6 | x6 | x6 | x6 | x6 | x6 | x4 :: x2 | x6 | x6 | %51
 x6 | x6 | x6 | x6 | x6 | x6 | x6 | x6 | x6 | x6 | x6 | x6 | x6 | x6 | x6 | x6 | x6 | x6 | x6 | %70
 x6 | x6 | x6 | x6 | x6 | x6 | x4 :| x/4 |[M:12/8] x9 | x12 | x12 | x12 | x12 | x12 | x12 | x12 | %86
 x12 | x12 | x3 :: x9 | x12 | x12 | x12 | x12 | x12 | x12 | x12 | x12 | x12 | x3 :| %100
V:8
 x | x8 | x8 | x8 | x8 | x8 | x8 | x8 | x8 | x8 | x8 | x7 :: x | x8 | x8 | x8 | x8 | x8 | x8 | x8 | %20
 x8 | x8 | x8 | x7 :| x/4 |[M:3/4] x2 | x6 | x6 | x6 | x6 | B,4 A,2 | x6 | x6 | x6 | x6 | x6 | x6 | %37
 x6 | x6 | x6 | x6 | x6 | x6 | x6 | x6 | x6 | x6 | x4 :: x2 | x6 | x6 | x6 | x6 | x6 | x6 | x6 | %56
 x6 | x6 | x6 | x6 | x6 | x6 | x6 | x6 | x6 | x6 | x6 | x6 | E,2 [=B,,=B,]4 | x6 | x6 | x6 | x6 | %73
 x6 | x6 | x6 | x4 :| x/4 |[M:12/8] x9 | x12 | x12 | x12 | x12 | x12 | D3- D2 x7 | x12 | %86
 G,3 G,2 A, x6 | x12 | x3 :: x3 B,6 | x12 | x12 | x12 | x12 | x12 | x12 | x12 | x12 | x12 | x3 :| %100

